X:1
T:Title
%%score { ( 1 3 ) | ( 2 4 ) }
L:1/8
M:4/4
K:Bb
V:1 treble nm="Grand Piano"
V:3 treble 
V:2 bass 
V:4 bass 
V:1
 z4 z2[Q:1/4=106] [DF]2 | [DF]3 [EG] [DF]2 [DB]2 | [Fd]3 [Ge] [Fd]2 [B,FB]2 | %3
 [B,EG]3 [B,GB] [B,FA]2 [B,EG]2 |[M:3/4] [B,DF]6 |[M:1/4] [DFB]2 |[M:4/4] A3 B c2 e2 | %7
 d2 [^Fc]2 [GB]2 G2 | FBBc d2 c2 |[M:3/4] [DB]6 |[M:1/4] d>c |[M:4/4] B6[K:bass][K:treble] z2 | %12
 F6 z2 | A3 B c2 _d2 | [Fd]6 z2 | (3ddd d>d B2 A>G | D6 z2 | (3GGG G>A B2 [Gc]>[G_d] | %18
[M:3/4] d2- [Bd-]>[Gd-] [^Fd]2 |[M:1/4] d2 |[M:4/4] e3 d c2 e2 | d2 c2 B2 B2 | (3BBB B>B A2 c>c | %23
[M:3/4] B6 |] %24
V:2
 z4 z2 [B,,B,]2 | [B,,B,]3 [B,,B,] [B,,B,]2 [B,,F,]2 | [B,,B,]3 [B,,B,] [B,,B,]2 D,2 | %3
 E,3 E, E,2 E,2 |[M:3/4] B,,6 |[M:1/4] B,,2 |[M:4/4][K:treble] [F,CF]3 [F,DF] [F,EF]2 [F,A,F]2 | %7
 [B,F]2[K:bass] [D,B,]2 [E,B,]2 [=E,B,_D]2 | [F,B,D]2 [G,B,=E]2 [F,B,F]2 [F,A,_E]2 | %9
[M:3/4] [B,,F,]6 |[M:1/4][K:treble] F>E |[M:4/4] D6[K:bass] z2 | D6 z2 | %13
 [F,C]3 [F,D] [F,E]2 [F,=E]2 | [B,,B,]2 B,,2 B,,2[K:treble] D2 | (3DDD D>D[K:bass] B,2 A,>G, | %16
 z2 G,>G, ^F,2 D,2 | (3G,G,G, G,>A, B,2 [E,G,]>[E,G,] |[M:3/4] A,2 G,>B, A,2 | %19
[M:1/4][K:treble] [B,F]2 |[M:4/4] [F,A,F]3 [F,B,F] [F,EF]2 [F,CF]2 | %21
 [B,F]2[K:bass] [F,A,E]2 [G,D]2 [^F,_D=E]2 | %22
 (3[F,DF][F,DF][F,DF] [F,DF]>[F,DF] [F,CE]2 [F,A,E]>[F,A,E] |[M:3/4] F,2 F,>G, F,2 |] %24
V:3
 x8 | x8 | x8 | x8 |[M:3/4] x6 |[M:1/4] x2 |[M:4/4] x8 | x8 | x8 |[M:3/4] x6 |[M:1/4] x2 | %11
[M:4/4] z2[K:bass] F,2 F,2[K:treble] G2 | z2 B,2 B,2 [DB]2 | x8 | z2 B,2 B,2 d2 | x8 | %16
 z2 B,>B, A,2 D2 | x8 |[M:3/4] ^F2 z2 z2 |[M:1/4] x2 |[M:4/4] x8 | x8 | x8 |[M:3/4] D2 D>E D2 |] %24
V:4
 x8 | x8 | x8 | x8 |[M:3/4] x6 |[M:1/4] x2 |[M:4/4][K:treble] x8 | x2[K:bass] x6 | x8 |[M:3/4] x6 | %10
[M:1/4][K:treble] x2 |[M:4/4] z2[K:bass] B,,2 B,,2 E2 | z2 B,,2 B,,2 [B,,F,]2 | x8 | %14
 x6[K:treble] x2 | x4[K:bass] x4 | D,6 z2 | x8 |[M:3/4] D,6 |[M:1/4][K:treble] x2 |[M:4/4] x8 | %21
 x2[K:bass] x6 | x8 |[M:3/4] B,,6 |] %24

